X:1
T: The Lost Heart
N:
C:aka Dissembling Love
S:Play 3 times
A:
O:
R:
M:6/8
K:Em
I:speed 150
%W: A1
% voice 1 (1 lines, 15 notes)
K:Em
M:6/8
L:1/16
E2 |E4 F2 G4 A2 B6 B4 e2 d4 B2 c4 A2 B6B4 E2 |
%W: A2
% voice 1 (1 lines, 15 notes)
E4 F2 G4 A2 B6 B4 e2 d4 B2 c4 A2 B6B4 c d |
%W: B
% voice 1 (1 lines, 21 notes)
e4 B2 B2 c4 d6 G3 A B c A2 B2 G A F3 E F G E6E4 c d |
%W: C1
% voice 1 (1 lines, 21 notes)
e4 B2 B2 c4 d6 G3 A B c A2 B2 G A F3 E F G E6E4 c d |
%W:
% voice 1 (1 lines, 21 notes)
e4 B2 B2 c4 d6 G3 A B c A2 B2 G A F3 E F G E6E4 c d |
%W: C2
% voice 1 (1 lines, 21 notes)
e4 B2 B2 c4 d6 G3 A B c A2 B2 G A F3 E F G E6E4 c d |
%W:
% voice 1 (1 lines, 19 notes)
e4 B2 B2 c4 d6 G3 A B c A2 B2 G A F3 E F G E6E4 ||
